X: 711
T: I'm waiting for you
C: anon.
O: Ireland
B: Francis O'Neill: "The Dance Music of Ireland" (1907) no. 711
R: Reel
Z: Transcribed by Frank Nordberg - http://www.musicaviva.com
F: http://www.musicaviva.com/abc/tunes/ireland/oneill-1001/oneill-1001-071
1.abc
M: C|
L: 1/8
K: G
D2|G2dG BBdG|AGFG ABcA|BAGF GABc|de=fd cA^FA|
B(>G {A}(3G)FG BGAG|FGAB cBcA|BdGB cBAG|FDEF G2||(Bd)|(3gag (fd) edBG|FDA
D BDAD|
E2(EF) GFGA|(3Bcd ce d2(Bd)|(3gag (fd) edBG|(3FED (AD)  BDAD|G2 (FE) DGBd
|cDEF G2|]
W:
W:
W: From Musica Viva - http://www.musicaviva.com
W: the Internet center for free sheet music downloads.


